!!!OTL: 994. Der Leimstaengler.
!!!ODT: 1609
!!!ARE: Europa, Mitteleuropa, Deutschland
!!!SCT: E0994
!!!TXL: @@DE
!!!YEM: Copyright 1995, estate of Helmut Schaffrath.
**kern	**text
*ICvox	*
*M4/4	*
*met(c)	*
*k[b-]	*
*F:	*
=1	=1
!LO:TX:a:t=Val. Haußmann, Deutſche Täntʒ. Nürnb. 1609. Nr. 39.	!
{4.cc	Sind
8cc	dir
4dd	denn
4cc	die
=2	=2
4.cc	Ho-
8cc	-ſen-
4b-/	-bän-
4a}	-der
=3	=3
{4.cc	län-
8cc	-ger
4b-	denn
4a	die
=4	=4
2g	Strüm-
2f}	-pe?
=5	=5
{4.cc	Sind
8cc	dir
4dd	denn
4cc	die
=6	=6
4.cc	Ho-
8cc	-ſen-
4b-/	-bän-
4a}	-der
=7	=7
{4.cc	län-
8cc	-ger
4b-	denn
4a	die
=8	=8
2g	Strüm-
2f}	-pe?
=9	=9
{4.g	Wa-
8g	-rum
4a	bin-
4g	-deſt
=10	=10
4.g	du
8g	ſie
4f}	nicht
{4e	he-
=11	=11
4.g	-rumb
8g	her
4f	in
4e	die
=12	=12
2d	Krüm-
2c}	-pe.
=13	=13
{4.g	Wa-
8g	-rum
4a	bin-
4g	-deſt
=14	=14
4.g	du
8g	ſie
4f}	nicht
{4e	he-
=15	=15
4.g	-rumb
8g	her
4f	in
4e	die
=16	=16
2d	Krüm-
2c}	-pe.
==	==
!!!AGN: Tanz - Lied, Reigen
!!!ONB: ESAC (Essen Associative Code) Database: ERK2
!!!AMT: simple quadruple
!!!AIN: vox
!!!EED: Helmut Schaffrath
!!!EEV: 1.0
!!!GTL: Tanz- und Spiellieder
!!!URL-scan: https://rosdok.uni-rostock.de/mcrviewer/recordIdentifier/rosdok_ppn745177662/iview2/phys_0763.iview2?x=-4.404412318551749&y=337.2796067581512&scale=0.6456904138606624&rotation=0&layout=singlePageLayout
!!!ENC: Anna Maria Matuszewska
!!!EEV: 2024/12/20
*-	*-
